X:16504
T:The Boatman
M:2/4
L:1/16
K:G
eeee d2d2|e2e2 d4|e2ee d2B2|AGAB G2G2||B3B A2G2|d4 d2GA|B2cB A2BA|G4 G3A
|B2B2 A2Bc|d2d2G3A|B2cB A2BA|G4G4||g4g4|a2g2 e4|dded BBdB|AABA G2G2||
